X: 35206
T: Rory And Catherine
R: reel
M: 4/4
K: Aminor
|EAAB AGED|EAAB c2 BA|eAAB AGEG|DGGA B2 AG|
EAAB AGED|EAAB c2 ee|g3a gedc|EABc A2 A2||
eaab aged|eAAB c2 BA|eaab aged|dGGA B2 AG|
eaab aged|eAAB c2 BA|g3a gedc|EABc A2 A2||
ecBc AEGA|EAAB c2 BA|ecBc AEGA|DGGA B2 AG|
ecBc AEGA|EAAB c2 ee|gede cAGE|EABc A2 A2||

